file/capri.svg

<svg clip-rule="evenodd" fill-rule="evenodd" stroke-linejoin="round" stroke-miterlimit="1.41421" viewBox="0 0 560 400" xmlns="http://www.w3.org/2000/svg"><g fill-rule="nonzero" transform="matrix(.00764948 0 0 -.00764948 99.9901 257.049)"><path d="m3857.81 14800.3c-879.57-186.1-1640.74-592.1-2328.59-1246.1-518.71-490.5-811.88-896.5-1110.7-1544.8-332.661-716.1-417.231-1127.7-417.231-2007.3 0-806.22 73.281-1206.53 338.281-1860.56 563.828-1381.37 1781.68-2463.9 3264.49-2886.76 592.03-169.14 1883.17-186.05 2446.99-28.2 783.72 214.26 1437.74 552.54 1933.91 992.34 355.2 315.75 400.31 439.77 349.57 947.23l-33.83 411.56-428.51-400.31c-947.23-879.53-1978.99-1246.01-3179.92-1110.7-1595.63 174.76-3005.16 1398.24-3411.14 2976.95-56.36 231.17-90.19 586.37-90.19 958.45 0 716.1 101.48 1144.6 422.85 1804.3 186.05 383.3 327.03 575.1 744.26 986.7 563.83 563.8 986.68 823.1 1725.27 1048.6 625.86 197.4 1544.88 186.1 2170.7-22.5 496.18-163.5 986.68-439.8 1392.66-772.4l259.34-225.6 90.23 225.6c197.3 496.1 118.4 637.1-620.23 1127.6-992.31 648.4-2294.73 879.6-3518.21 625.9z"/><path d="m12426.4 12313.1c-32.7-46.8-3461.85-7602.14-3597.52-7929.6-18.7-46.8 74.84-60.83 378.93-60.83 327.48 0 416.35 14.03 486.52 84.2 46.81 46.8 196.52 360.22 332.17 692.38 135.7 332.16 285.4 692.38 332.1 804.65l89 196.52 1927.4-9.37 1927.4-14.04 360.2-814.02c196.5-444.43 397.7-842.08 444.5-874.82 60.8-46.77 243.2-65.5 640.9-65.5 304.1 0 552 9.37 552 23.4 0 42.1-3560.1 7812.63-3630.3 7920.23-74.8 117-168.4 131-243.3 46.8zm743.9-3663.05c463.1-1047.94 837.4-1918.09 837.4-1946.16 0-23.37-655-42.11-1660.8-42.11-912.2 0-1660.8 9.37-1660.8 18.74 0 9.34 336.9 846.75 753.2 1857.26 416.4 1010.49 771.9 1890.02 795.3 1950.82 23.4 65.5 56.2 102.9 74.9 88.9 14-18.7 402.3-884.22 860.8-1927.45z" transform="scale(1.2052)"/><path d="m12348.8 5419.87v-2598.5h693.2l21.3 161.84c9.2 85.51 18.4 448.86 18.4 806.1v647.34l818.3 9.16c793.9 12.21 821.4 15.28 1065.6 94.65 806.1 268.71 1334.4 1001.53 1282.5 1777.11-48.9 726.71-558.8 1340.46-1319.1 1593.9l-244.3 82.44-1166.4 12.23-1169.5 12.2zm2024.5 2103.81c259.5-42.74 488.5-158.77 693.1-354.2 216.8-207.63 345-445.8 396.9-738.92 100.8-561.85-219.8-1166.42-754.1-1419.87l-207.7-97.7-702.3-9.15-705.3-9.16 12.2 1291.61c6.1 711.44 15.2 1309.91 21.4 1331.29 15.2 45.81 971 51.92 1245.8 6.1z" transform="scale(1.8465)"/><path d="m13409.7 3970.85v-1903.78h507.8l13.4 407.16c9 221.47 15.7 489.92 15.7 592.82v185.68h917.2l375.8-563.74c250.6-378.07 393.8-574.94 434-595.08 42.5-20.13 147.7-26.84 342.3-22.36l284.1 6.71-440.7 612.97c-241.6 335.56-442.9 621.9-447.4 637.57-4.5 13.43 49.2 51.46 118.5 85.02 304.3 145.41 579.5 463.07 680.1 785.21 71.6 228.19 67.1 525.73-8.9 744.96-145.4 413.86-507.8 738.23-968.7 872.46-114.1 33.55-264 40.26-977.6 46.97l-845.6 8.96zm1527.9 1530.18c293.1-62.65 536.9-259.5 671.1-543.62 67.2-140.95 71.6-163.31 71.6-407.16s-4.4-263.98-71.6-404.91c-96.1-196.87-275.1-375.84-467.5-469.79l-152.1-76.06-523.5-6.71-521.3-6.71 15.7 946.3c6.7 521.23 15.7 959.7 22.4 975.37 11.2 40.26 753.9 35.78 955.2-6.71z" transform="scale(2.52031)"/><path d="m15786.4 3464.16v-1659.83h462.8l13.7 1177.51c5.8 646.36 17.6 1392.31 23.4 1659.83l13.7 482.32h-513.6z" transform="scale(2.88732)"/><path d="m9518.55 1877.52c-372.14-107.15-693.51-682.23-614.57-1082.54 22.54-101.492 95.86-270.628 169.14-383.402 332.66-518.707 1240.38-524.34 1584.38-11.289 530 789.381-214.3 1747.851-1138.95 1477.231zm558.15-327.03c462.4-174.77 546.9-817.541 146.6-1099.459-186-129.64-563.81-118.39-744.24 22.578-541.25 428.481-39.45 1319.341 597.64 1076.881z"/><path d="m14947.2 811.67v-793.006h275.2l14 494.444 14 494.482 443.2-494.482c242.5-270.542 480.5-494.444 522.4-494.444 74.7 0 84 65.281 84 769.671v769.705h-279.9v-951.625l-471.2 499.135c-256.5 275.23-499.1 499.13-536.4 499.13-56 0-65.3-139.94-65.3-793.01z" transform="scale(1.20866)"/><path d="m15500.2 1382.17c-131.2-32.82-344.5-209.16-410.1-340.42-94.4-184.554-77.9-533.184 32.8-701.347 147.6-221.476 336.3-323.993 590.6-323.993 233.8 0 344.5 36.912 496.3 176.346 73.8 69.732 90.2 127.157 90.2 324.022v237.863h-266.6c-258.4 0-266.6-4.086-266.6-102.523 0-90.216 16.4-102.517 139.4-102.517 192.8 0 225.6-73.858 90.3-192.771-168.2-143.56-443-131.251-602.9 24.602-242 246.084-106.7 701.328 233.7 766.968 98.5 16.39 188.7 0 307.7-57.44 127.1-65.6 192.7-73.81 250.1-45.12 106.7 57.43 94.4 98.44-65.6 221.51-139.4 106.61-442.9 164.03-619.3 114.82z" transform="scale(1.37469)"/><path d="m15497.2 1233.65c-103.1-44.19-235.7-217.28-235.7-301.956 0-180.458 132.6-309.353 405.1-382.981 206.2-55.237 294.6-103.126 294.6-165.737 0-169.388-302-220.949-453-81.011-77.3 73.663-103.1 77.332-184.1 40.516-81-36.839-88.4-55.237-58.9-114.172 66.3-125.195 257.8-213.575 471.4-213.575 173 0 209.9 14.724 320.3 125.196 243.1 243.046 147.3 460.316-261.4 592.885-279.9 88.405-357.3 162.04-279.9 254.117 62.6 73.658 232 73.658 379.3 0 106.8-55.238 117.8-55.238 184.1 14.718 73.7 69.99 73.7 73.67-44.2 154.67-128.9 92.08-408.7 132.57-537.6 77.33z" transform="scale(1.53104)"/><path d="m15390.4 972.163c0-17.057-142.2-810.129-159.2-881.206-14.2-73.912-8.5-79.584 68.2-79.584 93.8 0 99.5 14.198 133.6 270.042 37 275.717 42.7 275.717 173.4-8.526 73.9-159.184 139.3-261.516 159.2-255.844 19.9 8.526 79.6 116.549 136.4 244.461 56.9 127.932 110.9 241.625 119.4 250.151 8.6 8.531 31.3-79.581 51.2-193.296 48.3-304.154 48.3-306.988 145-306.988 71 0 82.4 8.526 68.2 65.366-17.1 79.603-156.3 861.312-156.3 884.039 0 8.531-14.3 17.057-31.3 17.057-14.2 0-93.8-139.276-173.4-312.679-79.6-170.554-153.5-312.683-164.9-312.683-11.3 0-85.3 142.129-164.8 312.683-79.6 173.403-159.2 312.679-176.3 312.679-14.2 0-28.4-2.834-28.4-5.672z" transform="scale(1.98348)"/><path d="m6395 952.828v-930.269h338.28v789.332h902.11v-789.332h338.28v1860.581h-338.28v-732.97h-902.11v732.97h-338.28z"/><path d="m11807.7 952.828v-930.269h1246l-16.9 157.851c-16.9 152.231-22.6 152.231-451.1 169.141l-439.8 16.91v1516.679h-338.2z"/><path d="m13950.2 947.211v-935.941l524.3 22.539c473.6 16.91 546.9 33.832 733 174.8 298.8 225.512 394.6 445.391 366.5 828.791-45.1 614.57-355.2 845.74-1139 845.74h-484.8zm1116.3 462.339c124.1-124.06 152.3-202.97 152.3-434.14 0-253.75-22.6-304.488-186.1-451.058-140.9-129.68-236.8-163.512-434.1-163.512h-253.8v1257.3l287.6-28.2c214.2-22.54 327-67.66 434.1-180.39z"/><path d="m15974.5 916.916v-895.208h325.5v1790.462h-325.5z" transform="scale(1.03917)"/><path d="m15577.6 554.895v-541.758h722.4v197.004h-492.5v886.539h-229.9z" transform="scale(1.71713)"/><path d="m16111.3 531.347v-518.767h188.7v1037.56h-188.7z" transform="scale(1.79323)"/><path d="m16136 461.858v-450.923h164v901.866h-164z" transform="scale(2.06303)"/><path d="m15660.7 792.721c0-58.821 12.8-63.924 122.8-71.611l120.1-7.669 7.7-350.332 7.7-352.878h150.9v715.999h115c104.9 0 115.1 5.12 115.1 63.941v63.918h-639.3z" transform="scale(2.20485)"/><path d="m15792.5 408.442v-398.772h507.5v145.009h-362.5v193.348h314.2v145.009h-314.2v193.352h181.2c176.5 0 181.3 2.426 181.3 60.433v60.411h-507.5z" transform="scale(2.33284)"/><path d="m15633.9 381.568v-372.534h176.1c318.4 0 490 146.76 471.9 401.895-9 133.217-56.4 212.227-173.8 293.525-63.2 42.893-103.9 49.665-273.2 49.665h-201zm399.7 214.498c133.2-81.282 142.2-304.805 13.5-406.405-40.6-31.612-90.3-45.16-167.1-45.16h-110.6v496.724h97.1c54.2 0 126.4-18.069 167.1-45.159z" transform="scale(2.49714)"/></g></svg>

<?xml version="1.0" encoding="UTF-8" standalone="no"?>
<!DOCTYPE svg PUBLIC "-//W3C//DTD SVG 1.1//EN" "http://www.w3.org/Graphics/SVG/1.1/DTD/svg11.dtd">
<svg width="100%" height="100%" viewBox="0 0 560 400" version="1.1" xmlns="http://www.w3.org/2000/svg" xmlns:xlink="http://www.w3.org/1999/xlink" xml:space="preserve" xmlns:serif="http://www.serif.com/" style="fill-rule:evenodd;clip-rule:evenodd;stroke-linejoin:round;stroke-miterlimit:1.41421;">
    <g transform="matrix(0.00764948,-1.48971e-34,1.48971e-34,-0.00764948,99.9901,257.049)">
        <path id="path14" d="M3857.81,14800.3C2978.24,14614.2 2217.07,14208.2 1529.22,13554.2C1010.51,13063.7 717.34,12657.7 418.52,12009.4C85.859,11293.3 1.289,10881.7 1.289,10002.1C1.289,9195.88 74.57,8795.57 339.57,8141.54C903.398,6760.17 2121.25,5677.64 3604.06,5254.78C4196.09,5085.64 5487.23,5068.73 6051.05,5226.58C6834.77,5440.84 7488.79,5779.12 7984.96,6218.92C8340.16,6534.67 8385.27,6658.69 8334.53,7166.15L8300.7,7577.71L7872.19,7177.4C6924.96,6297.87 5893.2,5931.39 4692.27,6066.7C3096.64,6241.46 1687.11,7464.94 1281.13,9043.65C1224.77,9274.82 1190.94,9630.02 1190.94,10002.1C1190.94,10718.2 1292.42,11146.7 1613.79,11806.4C1799.84,12189.7 1940.82,12381.5 2358.05,12793.1C2921.88,13356.9 3344.73,13616.2 4083.32,13841.7C4709.18,14039.1 5628.2,14027.8 6254.02,13819.2C6750.2,13655.7 7240.7,13379.4 7646.68,13046.8L7906.02,12821.2L7996.25,13046.8C8193.55,13542.9 8114.65,13683.9 7376.02,14174.4C6383.71,14822.8 5081.29,15054 3857.81,14800.3L3857.81,14800.3Z" style="fill-rule:nonzero;"/>
        <g id="path18" transform="matrix(1.2052,0,0,1.2052,0,0)">
            <path d="M12426.4,12313.1C12393.7,12266.3 8964.55,4710.96 8828.88,4383.5C8810.18,4336.7 8903.72,4322.67 9207.81,4322.67C9535.29,4322.67 9624.16,4336.7 9694.33,4406.87C9741.14,4453.67 9890.85,4767.09 10026.5,5099.25C10162.2,5431.41 10311.9,5791.63 10358.6,5903.9L10447.6,6100.42L12375,6091.05L14302.4,6077.01L14662.6,5262.99C14859.1,4818.56 15060.3,4420.91 15107.1,4388.17C15167.9,4341.4 15350.3,4322.67 15748,4322.67C16052.1,4322.67 16300,4332.04 16300,4346.07C16300,4388.17 12739.9,12158.7 12669.7,12266.3C12594.9,12383.3 12501.3,12397.3 12426.4,12313.1L12426.4,12313.1ZM13170.3,8650.05C13633.4,7602.11 14007.7,6731.96 14007.7,6703.89C14007.7,6680.52 13352.7,6661.78 12346.9,6661.78C11434.7,6661.78 10686.1,6671.15 10686.1,6680.52C10686.1,6689.86 11023,7527.27 11439.3,8537.78C11855.7,9548.27 12211.2,10427.8 12234.6,10488.6C12258,10554.1 12290.8,10591.5 12309.5,10577.5C12323.5,10558.8 12711.8,9693.28 13170.3,8650.05L13170.3,8650.05Z" style="fill-rule:nonzero;"/>
        </g>
        <g id="path22" transform="matrix(1.8465,0,0,1.8465,0,0)">
            <path d="M12348.8,5419.87L12348.8,2821.37L13042,2821.37L13063.3,2983.21C13072.5,3068.72 13081.7,3432.07 13081.7,3789.31L13081.7,4436.65L13900,4445.81C14693.9,4458.02 14721.4,4461.09 14965.6,4540.46C15771.7,4809.17 16300,5541.99 16248.1,6317.57C16199.2,7044.28 15689.3,7658.03 14929,7911.47L14684.7,7993.91L13518.3,8006.14L12348.8,8018.34L12348.8,5419.87ZM14373.3,7523.68C14632.8,7480.94 14861.8,7364.91 15066.4,7169.48C15283.2,6961.85 15411.4,6723.68 15463.3,6430.56C15564.1,5868.71 15243.5,5264.14 14709.2,5010.69L14501.5,4912.99L13799.2,4903.84L13093.9,4894.68L13106.1,6186.29C13112.2,6897.73 13121.3,7496.2 13127.5,7517.58C13142.7,7563.39 14098.5,7569.5 14373.3,7523.68Z" style="fill-rule:nonzero;"/>
        </g>
        <g id="path26" transform="matrix(2.52031,0,0,2.52031,0,0)">
            <path d="M13409.7,3970.85L13409.7,2067.07L13917.5,2067.07L13930.9,2474.23C13939.9,2695.7 13946.6,2964.15 13946.6,3067.05L13946.6,3252.73L14863.8,3252.73L15239.6,2688.99C15490.2,2310.92 15633.4,2114.05 15673.6,2093.91C15716.1,2073.78 15821.3,2067.07 16015.9,2071.55L16300,2078.26L15859.3,2691.23C15617.7,3026.79 15416.4,3313.13 15411.9,3328.8C15407.4,3342.23 15461.1,3380.26 15530.4,3413.82C15834.7,3559.23 16109.9,3876.89 16210.5,4199.03C16282.1,4427.22 16277.6,4724.76 16201.6,4943.99C16056.2,5357.85 15693.8,5682.22 15232.9,5816.45C15118.8,5850 14968.9,5856.71 14255.3,5863.42L13409.7,5872.38L13409.7,3970.85ZM14937.6,5501.03C15230.7,5438.38 15474.5,5241.53 15608.7,4957.41C15675.9,4816.46 15680.3,4794.1 15680.3,4550.25C15680.3,4306.4 15675.9,4286.27 15608.7,4145.34C15512.6,3948.47 15333.6,3769.5 15141.2,3675.55L14989.1,3599.49L14465.6,3592.78L13944.3,3586.07L13960,4532.37C13966.7,5053.6 13975.7,5492.07 13982.4,5507.74C13993.6,5548 14736.3,5543.52 14937.6,5501.03L14937.6,5501.03Z" style="fill-rule:nonzero;"/>
        </g>
        <g id="path30" transform="matrix(2.88732,0,0,2.88732,0,0)">
            <path d="M15786.4,3464.16L15786.4,1804.33L16249.2,1804.33L16262.9,2981.84C16268.7,3628.2 16280.5,4374.15 16286.3,4641.67L16300,5123.99L15786.4,5123.99L15786.4,3464.16Z" style="fill-rule:nonzero;"/>
        </g>
        <path id="path32" d="M9518.55,1877.52C9146.41,1770.37 8825.04,1195.29 8903.98,794.98C8926.52,693.488 8999.84,524.352 9073.12,411.578C9405.78,-107.129 10313.5,-112.762 10657.5,400.289C11187.5,1189.67 10443.2,2148.14 9518.55,1877.52ZM10076.7,1550.49C10539.1,1375.72 10623.6,732.949 10223.3,451.031C10037.3,321.391 9659.49,332.641 9479.06,473.609C8937.81,902.09 9439.61,1792.95 10076.7,1550.49Z" style="fill-rule:nonzero;"/>
        <g id="path36" transform="matrix(1.20866,0,0,1.20866,0,0)">
            <path d="M14947.2,811.67L14947.2,18.664L15222.4,18.664L15236.4,513.108L15250.4,1007.59L15693.6,513.108C15936.1,242.566 16174.1,18.664 16216,18.664C16290.7,18.664 16300,83.945 16300,788.335L16300,1558.04L16020.1,1558.04L16020.1,606.415L15548.9,1105.55C15292.4,1380.78 15049.8,1604.68 15012.5,1604.68C14956.5,1604.68 14947.2,1464.74 14947.2,811.67L14947.2,811.67Z" style="fill-rule:nonzero;"/>
        </g>
        <g id="path40" transform="matrix(1.37469,0,0,1.37469,0,0)">
            <path d="M15500.2,1382.17C15369,1349.35 15155.7,1173.01 15090.1,1041.75C14995.7,857.196 15012.2,508.566 15122.9,340.403C15270.5,118.927 15459.2,16.41 15713.5,16.41C15947.3,16.41 16058,53.322 16209.8,192.756C16283.6,262.488 16300,319.913 16300,516.778L16300,754.641L16033.4,754.641C15775,754.641 15766.8,750.555 15766.8,652.118C15766.8,561.902 15783.2,549.601 15906.2,549.601C16099,549.601 16131.8,475.743 15996.5,356.83C15828.3,213.27 15553.5,225.579 15393.6,381.432C15151.6,627.516 15286.9,1082.76 15627.3,1148.4C15725.8,1164.79 15816,1148.4 15935,1090.96C16062.1,1025.36 16127.7,1017.15 16185.1,1045.84C16291.8,1103.27 16279.5,1144.28 16119.5,1267.35C15980.1,1373.96 15676.6,1431.38 15500.2,1382.17Z" style="fill-rule:nonzero;"/>
        </g>
        <g id="path44" transform="matrix(1.53104,0,0,1.53104,0,0)">
            <path d="M15497.2,1233.65C15394.1,1189.46 15261.5,1016.37 15261.5,931.694C15261.5,751.236 15394.1,622.341 15666.6,548.713C15872.8,493.476 15961.2,445.587 15961.2,382.976C15961.2,213.588 15659.2,162.027 15508.2,301.965C15430.9,375.628 15405.1,379.297 15324.1,342.481C15243.1,305.642 15235.7,287.244 15265.2,228.309C15331.5,103.114 15523,14.734 15736.6,14.734C15909.6,14.734 15946.5,29.458 16056.9,139.93C16300,382.976 16204.2,600.246 15795.5,732.815C15515.6,821.22 15438.2,894.855 15515.6,986.932C15578.2,1060.59 15747.6,1060.59 15894.9,986.932C16001.7,931.694 16012.7,931.694 16079,1001.65C16152.7,1071.64 16152.7,1075.32 16034.8,1156.32C15905.9,1248.4 15626.1,1288.89 15497.2,1233.65L15497.2,1233.65Z" style="fill-rule:nonzero;"/>
        </g>
        <g id="path48" transform="matrix(1.98348,0,0,1.98348,0,0)">
            <path d="M15390.4,972.163C15390.4,955.106 15248.2,162.034 15231.2,90.957C15217,17.045 15222.7,11.373 15299.4,11.373C15393.2,11.373 15398.9,25.571 15433,281.415C15470,557.132 15475.7,557.132 15606.4,272.889C15680.3,113.705 15745.7,11.373 15765.6,17.045C15785.5,25.571 15845.2,133.594 15902,261.506C15958.9,389.438 16012.9,503.131 16021.4,511.657C16030,520.188 16052.7,432.076 16072.6,318.361C16120.9,14.207 16120.9,11.373 16217.6,11.373C16288.6,11.373 16300,19.899 16285.8,76.739C16268.7,156.342 16129.5,938.051 16129.5,960.778C16129.5,969.309 16115.2,977.835 16098.2,977.835C16084,977.835 16004.4,838.559 15924.8,665.156C15845.2,494.602 15771.3,352.473 15759.9,352.473C15748.6,352.473 15674.6,494.602 15595.1,665.156C15515.5,838.559 15435.9,977.835 15418.8,977.835C15404.6,977.835 15390.4,975.001 15390.4,972.163L15390.4,972.163Z" style="fill-rule:nonzero;"/>
        </g>
        <path id="path50" d="M6395,952.828L6395,22.559L6733.28,22.559L6733.28,811.891L7635.39,811.891L7635.39,22.559L7973.67,22.559L7973.67,1883.14L7635.39,1883.14L7635.39,1150.17L6733.28,1150.17L6733.28,1883.14L6395,1883.14L6395,952.828Z" style="fill-rule:nonzero;"/>
        <path id="path52" d="M11807.7,952.828L11807.7,22.559L13053.7,22.559L13036.8,180.41C13019.9,332.641 13014.2,332.641 12585.7,349.551L12145.9,366.461L12145.9,1883.14L11807.7,1883.14L11807.7,952.828Z" style="fill-rule:nonzero;"/>
        <path id="path54" d="M13950.2,947.211L13950.2,11.27L14474.5,33.809C14948.1,50.719 15021.4,67.641 15207.5,208.609C15506.3,434.121 15602.1,654 15574,1037.4C15528.9,1651.97 15218.8,1883.14 14435,1883.14L13950.2,1883.14L13950.2,947.211ZM15066.5,1409.55C15190.6,1285.49 15218.8,1206.58 15218.8,975.41C15218.8,721.66 15196.2,670.922 15032.7,524.352C14891.8,394.672 14795.9,360.84 14598.6,360.84L14344.8,360.84L14344.8,1618.14L14632.4,1589.94C14846.6,1567.4 14959.4,1522.28 15066.5,1409.55Z" style="fill-rule:nonzero;"/>
        <g id="path58" transform="matrix(1.03917,0,0,1.03917,0,0)">
            <path d="M15974.5,916.916L15974.5,21.708L16300,21.708L16300,1812.17L15974.5,1812.17L15974.5,916.916Z" style="fill-rule:nonzero;"/>
        </g>
        <g id="path62" transform="matrix(1.71713,0,0,1.71713,0,0)">
            <path d="M15577.6,554.895L15577.6,13.137L16300,13.137L16300,210.141L15807.5,210.141L15807.5,1096.68L15577.6,1096.68L15577.6,554.895Z" style="fill-rule:nonzero;"/>
        </g>
        <g id="path66" transform="matrix(1.79323,0,0,1.79323,0,0)">
            <path d="M16111.3,531.347L16111.3,12.58L16300,12.58L16300,1050.14L16111.3,1050.14L16111.3,531.347Z" style="fill-rule:nonzero;"/>
        </g>
        <g id="path70" transform="matrix(2.06303,0,0,2.06303,0,0)">
            <path d="M16136,461.858L16136,10.935L16300,10.935L16300,912.801L16136,912.801L16136,461.858Z" style="fill-rule:nonzero;"/>
        </g>
        <g id="path74" transform="matrix(2.20485,0,0,2.20485,0,0)">
            <path d="M15660.7,792.721C15660.7,733.9 15673.5,728.797 15783.5,721.11L15903.6,713.441L15911.3,363.109L15919,10.231L16069.9,10.231L16069.9,726.23L16184.9,726.23C16289.8,726.23 16300,731.35 16300,790.171L16300,854.089L15660.7,854.089L15660.7,792.721Z" style="fill-rule:nonzero;"/>
        </g>
        <g id="path78" transform="matrix(2.33284,0,0,2.33284,0,0)">
            <path d="M15792.5,408.442L15792.5,9.67L16300,9.67L16300,154.679L15937.5,154.679L15937.5,348.027L16251.7,348.027L16251.7,493.036L15937.5,493.036L15937.5,686.388L16118.7,686.388C16295.2,686.388 16300,688.814 16300,746.821L16300,807.232L15792.5,807.232L15792.5,408.442Z" style="fill-rule:nonzero;"/>
        </g>
        <g id="path82" transform="matrix(2.49714,0,0,2.49714,0,0)">
            <path d="M15633.9,381.568L15633.9,9.034L15810,9.034C16128.4,9.034 16300,155.794 16281.9,410.929C16272.9,544.146 16225.5,623.156 16108.1,704.454C16044.9,747.347 16004.2,754.119 15834.9,754.119L15633.9,754.119L15633.9,381.568ZM16033.6,596.066C16166.8,514.784 16175.8,291.261 16047.1,189.661C16006.5,158.049 15956.8,144.501 15880,144.501L15769.4,144.501L15769.4,641.225L15866.5,641.225C15920.7,641.225 15992.9,623.156 16033.6,596.066Z" style="fill-rule:nonzero;"/>
        </g>
    </g>
</svg>
